icons/modern/crutch.svg

<svg width="32" height="32" viewBox="0 0 32 32" fill="none" xmlns="http://www.w3.org/2000/svg">
<path fill-rule="evenodd" clip-rule="evenodd" d="M12.0265 19.9392C12.2999 20.2125 12.2999 20.6557 12.0265 20.9291L5.02652 27.9291C4.75315 28.2025 4.30994 28.2025 4.03657 27.9291C3.7632 27.6557 3.7632 27.2125 4.03657 26.9392L11.0366 19.9392C11.3099 19.6658 11.7531 19.6658 12.0265 19.9392Z" fill="url(#paint0_linear_4791_915)"/>
<path fill-rule="evenodd" clip-rule="evenodd" d="M12.0265 19.9392C12.2999 20.2125 12.2999 20.6557 12.0265 20.9291L5.02652 27.9291C4.75315 28.2025 4.30994 28.2025 4.03657 27.9291C3.7632 27.6557 3.7632 27.2125 4.03657 26.9392L11.0366 19.9392C11.3099 19.6658 11.7531 19.6658 12.0265 19.9392Z" fill="url(#paint1_radial_4791_915)"/>
<g filter="url(#filter0_ii_4791_915)">
<path d="M22.5439 13.8904L18.0439 9.39043L19.6018 7.78418L24.1018 12.2842L22.5439 13.8904Z" fill="url(#paint2_linear_4791_915)"/>
</g>
<path d="M22.5439 13.8904L18.0439 9.39043L19.6018 7.78418L24.1018 12.2842L22.5439 13.8904Z" fill="url(#paint3_radial_4791_915)"/>
<g filter="url(#filter1_ii_4791_915)">
<path d="M9.63386 23.2844L8.5989 22.2842C8.2989 21.9842 8.32616 21.3758 8.623 21.114L10.6151 19.0281C11.2151 18.5281 12.6542 16.9265 12.6989 15.4842C12.8964 13.2078 14.6989 11.5842 14.7989 11.4842L21.9989 4.28418L23.1989 5.48418L15.8989 12.7842C15.7989 12.8842 14.3989 14.1842 14.3989 15.5842C14.3989 16.3329 14.0874 17.1206 13.6831 17.8258C13.5807 18.0045 13.8795 18.3038 14.0587 18.2022C14.7736 17.7968 15.5863 17.4842 16.3989 17.4842C18.0057 17.3328 19.1464 15.9656 19.1464 15.9656L26.4823 8.53592L27.701 9.77029L20.412 17.075C20.412 17.075 18.7089 18.9842 16.2792 19.1375C14.7792 19.3172 13.8104 20.4187 12.8339 21.2703L10.8339 23.1844C10.452 23.5663 9.9453 23.5958 9.63386 23.2844Z" fill="url(#paint4_linear_4791_915)"/>
</g>
<path d="M9.63386 23.2844L8.5989 22.2842C8.2989 21.9842 8.32616 21.3758 8.623 21.114L10.6151 19.0281C11.2151 18.5281 12.6542 16.9265 12.6989 15.4842C12.8964 13.2078 14.6989 11.5842 14.7989 11.4842L21.9989 4.28418L23.1989 5.48418L15.8989 12.7842C15.7989 12.8842 14.3989 14.1842 14.3989 15.5842C14.3989 16.3329 14.0874 17.1206 13.6831 17.8258C13.5807 18.0045 13.8795 18.3038 14.0587 18.2022C14.7736 17.7968 15.5863 17.4842 16.3989 17.4842C18.0057 17.3328 19.1464 15.9656 19.1464 15.9656L26.4823 8.53592L27.701 9.77029L20.412 17.075C20.412 17.075 18.7089 18.9842 16.2792 19.1375C14.7792 19.3172 13.8104 20.4187 12.8339 21.2703L10.8339 23.1844C10.452 23.5663 9.9453 23.5958 9.63386 23.2844Z" fill="url(#paint5_radial_4791_915)"/>
<g filter="url(#filter2_i_4791_915)">
<path d="M27.1844 9.9028L21.9844 4.7028C21.3844 4.1028 21.2815 3.30756 22.0547 2.53413C22.8278 1.7607 23.6844 1.8028 24.2844 2.4028L29.4844 7.6028C30.0844 8.2028 30.2744 9.05831 29.4299 9.9028C28.5393 10.7373 27.7844 10.5028 27.1844 9.9028Z" fill="url(#paint6_linear_4791_915)"/>
</g>
<g filter="url(#filter3_f_4791_915)">
<path d="M5.44849 26.4915L8.82532 23.1436" stroke="url(#paint7_linear_4791_915)" stroke-width="0.3"/>
</g>
<path d="M3.25024 29.62L2.30498 28.6669C2.00498 28.3669 2.00494 27.6934 2.30494 27.3934L3.85962 25.8388C4.15962 25.5388 4.83618 25.4169 5.25806 25.8388L6.09399 26.6747C6.48071 27.0614 6.54712 27.6591 6.09399 28.1044L4.70337 29.5028C4.40337 29.8028 3.75806 30.1044 3.25024 29.62Z" fill="url(#paint8_linear_4791_915)"/>
<path d="M3.25024 29.62L2.30498 28.6669C2.00498 28.3669 2.00494 27.6934 2.30494 27.3934L3.85962 25.8388C4.15962 25.5388 4.83618 25.4169 5.25806 25.8388L6.09399 26.6747C6.48071 27.0614 6.54712 27.6591 6.09399 28.1044L4.70337 29.5028C4.40337 29.8028 3.75806 30.1044 3.25024 29.62Z" fill="url(#paint9_radial_4791_915)"/>
<path d="M3.25024 29.62L2.30498 28.6669C2.00498 28.3669 2.00494 27.6934 2.30494 27.3934L3.85962 25.8388C4.15962 25.5388 4.83618 25.4169 5.25806 25.8388L6.09399 26.6747C6.48071 27.0614 6.54712 27.6591 6.09399 28.1044L4.70337 29.5028C4.40337 29.8028 3.75806 30.1044 3.25024 29.62Z" fill="url(#paint10_radial_4791_915)"/>
<path d="M3.25024 29.62L2.30498 28.6669C2.00498 28.3669 2.00494 27.6934 2.30494 27.3934L3.85962 25.8388C4.15962 25.5388 4.83618 25.4169 5.25806 25.8388L6.09399 26.6747C6.48071 27.0614 6.54712 27.6591 6.09399 28.1044L4.70337 29.5028C4.40337 29.8028 3.75806 30.1044 3.25024 29.62Z" fill="url(#paint11_linear_4791_915)"/>
<g filter="url(#filter4_f_4791_915)">
<path d="M22.2197 5.53662L14.3455 13.4493C14.1662 13.7566 13.8077 14.1791 13.8077 15.2546C13.8077 15.9543 13.6632 16.8468 13.2023 17.5885C12.9988 17.916 12.9917 18.3564 13.2643 18.6291V18.6291C13.51 18.8748 13.9017 18.904 14.2113 18.7462C14.7862 18.4534 15.6566 18.1354 16.4965 18.1354C17.9561 18.1354 18.5322 17.7513 19.6846 16.599C20.6064 15.6771 24.6652 11.6184 26.5793 9.70421" stroke="url(#paint12_linear_4791_915)" stroke-width="0.2"/>
<path d="M22.2197 5.53662L14.3455 13.4493C14.1662 13.7566 13.8077 14.1791 13.8077 15.2546C13.8077 15.9543 13.6632 16.8468 13.2023 17.5885C12.9988 17.916 12.9917 18.3564 13.2643 18.6291V18.6291C13.51 18.8748 13.9017 18.904 14.2113 18.7462C14.7862 18.4534 15.6566 18.1354 16.4965 18.1354C17.9561 18.1354 18.5322 17.7513 19.6846 16.599C20.6064 15.6771 24.6652 11.6184 26.5793 9.70421" stroke="url(#paint13_radial_4791_915)" stroke-width="0.2"/>
</g>
<g filter="url(#filter5_f_4791_915)">
<path d="M28.9872 8.15827L23.5946 2.79974C23.4131 2.61936 23.125 2.60431 22.9256 2.76479C22.6925 2.95251 22.6742 3.30125 22.8866 3.51225L28.279 8.87096C28.4754 9.06612 28.7926 9.0656 28.9884 8.86978C29.185 8.67315 29.1844 8.35425 28.9872 8.15827Z" fill="url(#paint14_linear_4791_915)"/>
</g>
<defs>
<filter id="filter0_ii_4791_915" x="18.0439" y="7.28418" width="6.05786" height="7.1062" filterUnits="userSpaceOnUse" color-interpolation-filters="sRGB">
<feFlood flood-opacity="0" result="BackgroundImageFix"/>
<feBlend mode="normal" in="SourceGraphic" in2="BackgroundImageFix" result="shape"/>
<feColorMatrix in="SourceAlpha" type="matrix" values="0 0 0 0 0 0 0 0 0 0 0 0 0 0 0 0 0 0 127 0" result="hardAlpha"/>
<feOffset dy="-0.6"/>
<feGaussianBlur stdDeviation="0.25"/>
<feComposite in2="hardAlpha" operator="arithmetic" k2="-1" k3="1"/>
<feColorMatrix type="matrix" values="0 0 0 0 0.372549 0 0 0 0 0.309804 0 0 0 0 0.568627 0 0 0 1 0"/>
<feBlend mode="normal" in2="shape" result="effect1_innerShadow_4791_915"/>
<feColorMatrix in="SourceAlpha" type="matrix" values="0 0 0 0 0 0 0 0 0 0 0 0 0 0 0 0 0 0 127 0" result="hardAlpha"/>
<feOffset dy="0.6"/>
<feGaussianBlur stdDeviation="0.25"/>
<feComposite in2="hardAlpha" operator="arithmetic" k2="-1" k3="1"/>
<feColorMatrix type="matrix" values="0 0 0 0 0.427451 0 0 0 0 0.415686 0 0 0 0 0.603922 0 0 0 1 0"/>
<feBlend mode="normal" in2="effect1_innerShadow_4791_915" result="effect2_innerShadow_4791_915"/>
</filter>
<filter id="filter1_ii_4791_915" x="8.38672" y="3.98418" width="19.4143" height="19.8124" filterUnits="userSpaceOnUse" color-interpolation-filters="sRGB">
<feFlood flood-opacity="0" result="BackgroundImageFix"/>
<feBlend mode="normal" in="SourceGraphic" in2="BackgroundImageFix" result="shape"/>
<feColorMatrix in="SourceAlpha" type="matrix" values="0 0 0 0 0 0 0 0 0 0 0 0 0 0 0 0 0 0 127 0" result="hardAlpha"/>
<feOffset dy="-0.3"/>
<feGaussianBlur stdDeviation="0.375"/>
<feComposite in2="hardAlpha" operator="arithmetic" k2="-1" k3="1"/>
<feColorMatrix type="matrix" values="0 0 0 0 0.643137 0 0 0 0 0.521569 0 0 0 0 0.752941 0 0 0 1 0"/>
<feBlend mode="normal" in2="shape" result="effect1_innerShadow_4791_915"/>
<feColorMatrix in="SourceAlpha" type="matrix" values="0 0 0 0 0 0 0 0 0 0 0 0 0 0 0 0 0 0 127 0" result="hardAlpha"/>
<feOffset dx="0.1" dy="0.3"/>
<feGaussianBlur stdDeviation="0.15"/>
<feComposite in2="hardAlpha" operator="arithmetic" k2="-1" k3="1"/>
<feColorMatrix type="matrix" values="0 0 0 0 0.667329 0 0 0 0 0.624199 0 0 0 0 0.71585 0 0 0 1 0"/>
<feBlend mode="normal" in2="effect1_innerShadow_4791_915" result="effect2_innerShadow_4791_915"/>
</filter>
<filter id="filter2_i_4791_915" x="21.5045" y="1.65288" width="8.49548" height="8.79133" filterUnits="userSpaceOnUse" color-interpolation-filters="sRGB">
<feFlood flood-opacity="0" result="BackgroundImageFix"/>
<feBlend mode="normal" in="SourceGraphic" in2="BackgroundImageFix" result="shape"/>
<feColorMatrix in="SourceAlpha" type="matrix" values="0 0 0 0 0 0 0 0 0 0 0 0 0 0 0 0 0 0 127 0" result="hardAlpha"/>
<feOffset dy="-0.3"/>
<feGaussianBlur stdDeviation="0.3"/>
<feComposite in2="hardAlpha" operator="arithmetic" k2="-1" k3="1"/>
<feColorMatrix type="matrix" values="0 0 0 0 0.364706 0 0 0 0 0.309804 0 0 0 0 0.537255 0 0 0 1 0"/>
<feBlend mode="normal" in2="shape" result="effect1_innerShadow_4791_915"/>
</filter>
<filter id="filter3_f_4791_915" x="5.0429" y="22.737" width="4.18801" height="4.16104" filterUnits="userSpaceOnUse" color-interpolation-filters="sRGB">
<feFlood flood-opacity="0" result="BackgroundImageFix"/>
<feBlend mode="normal" in="SourceGraphic" in2="BackgroundImageFix" result="shape"/>
<feGaussianBlur stdDeviation="0.15" result="effect1_foregroundBlur_4791_915"/>
</filter>
<filter id="filter4_f_4791_915" x="12.5542" y="5.06606" width="14.4959" height="14.2778" filterUnits="userSpaceOnUse" color-interpolation-filters="sRGB">
<feFlood flood-opacity="0" result="BackgroundImageFix"/>
<feBlend mode="normal" in="SourceGraphic" in2="BackgroundImageFix" result="shape"/>
<feGaussianBlur stdDeviation="0.2" result="effect1_foregroundBlur_4791_915"/>
</filter>
<filter id="filter5_f_4791_915" x="21.4883" y="1.40381" width="8.89709" height="8.86316" filterUnits="userSpaceOnUse" color-interpolation-filters="sRGB">
<feFlood flood-opacity="0" result="BackgroundImageFix"/>
<feBlend mode="normal" in="SourceGraphic" in2="BackgroundImageFix" result="shape"/>
<feGaussianBlur stdDeviation="0.625" result="effect1_foregroundBlur_4791_915"/>
</filter>
<linearGradient id="paint0_linear_4791_915" x1="6.41797" y1="24.3233" x2="7.68359" y2="25.5889" gradientUnits="userSpaceOnUse">
<stop offset="0.38404" stop-color="#ADA7B5"/>
<stop offset="1" stop-color="#AF97C7"/>
</linearGradient>
<radialGradient id="paint1_radial_4791_915" cx="0" cy="0" r="1" gradientUnits="userSpaceOnUse" gradientTransform="translate(5.60721 26.333) rotate(-44.5559) scale(5.26558 1.893)">
<stop offset="0.797521" stop-color="#967EAE" stop-opacity="0"/>
<stop offset="0.971074" stop-color="#967EAE"/>
</radialGradient>
<linearGradient id="paint2_linear_4791_915" x1="19.7998" y1="9.3392" x2="22.9879" y2="12.7578" gradientUnits="userSpaceOnUse">
<stop stop-color="#645E95"/>
<stop offset="1" stop-color="#5D5583"/>
</linearGradient>
<radialGradient id="paint3_radial_4791_915" cx="0" cy="0" r="1" gradientUnits="userSpaceOnUse" gradientTransform="translate(18.7627 10.2611) rotate(22.1156) scale(5.2034 5.1988)">
<stop offset="0.700521" stop-color="#504A77" stop-opacity="0"/>
<stop offset="0.880208" stop-color="#504A77"/>
</radialGradient>
<linearGradient id="paint4_linear_4791_915" x1="13.0205" y1="19.863" x2="28.6849" y2="4.28418" gradientUnits="userSpaceOnUse">
<stop offset="0.5012" stop-color="#BAB1C3"/>
<stop offset="1" stop-color="#968F9F"/>
</linearGradient>
<radialGradient id="paint5_radial_4791_915" cx="0" cy="0" r="1" gradientUnits="userSpaceOnUse" gradientTransform="translate(9.20651 22.7235) rotate(-44.8193) scale(22.8994 10.8847)">
<stop offset="0.914665" stop-color="#807491" stop-opacity="0"/>
<stop offset="1" stop-color="#807491"/>
</radialGradient>
<linearGradient id="paint6_linear_4791_915" x1="23.6409" y1="1.95288" x2="28.1734" y2="11.2597" gradientUnits="userSpaceOnUse">
<stop stop-color="#6466A4"/>
<stop offset="1" stop-color="#554688"/>
</linearGradient>
<linearGradient id="paint7_linear_4791_915" x1="5.63607" y1="26.4915" x2="9.09953" y2="22.9704" gradientUnits="userSpaceOnUse">
<stop offset="0.557779" stop-color="#B4AFBC"/>
<stop offset="1" stop-color="#A699B5" stop-opacity="0"/>
</linearGradient>
<linearGradient id="paint8_linear_4791_915" x1="3.15326" y1="26.5729" x2="5.3225" y2="28.7421" gradientUnits="userSpaceOnUse">
<stop stop-color="#645D9B"/>
<stop offset="1" stop-color="#6952A3"/>
</linearGradient>
<radialGradient id="paint9_radial_4791_915" cx="0" cy="0" r="1" gradientUnits="userSpaceOnUse" gradientTransform="translate(5.28973 26.6503) rotate(136.618) scale(3.61376 1.05942)">
<stop offset="0.275563" stop-color="#6D62A2"/>
<stop offset="1" stop-color="#6D62A2" stop-opacity="0"/>
</radialGradient>
<radialGradient id="paint10_radial_4791_915" cx="0" cy="0" r="1" gradientUnits="userSpaceOnUse" gradientTransform="translate(5.31859 26.5348) rotate(136.909) scale(0.612598 1.21342)">
<stop stop-color="#7F78AD"/>
<stop offset="1" stop-color="#7F78AD" stop-opacity="0"/>
</radialGradient>
<linearGradient id="paint11_linear_4791_915" x1="2.83645" y1="29.4499" x2="3.52914" y2="28.7861" gradientUnits="userSpaceOnUse">
<stop stop-color="#6B4DA4"/>
<stop offset="1" stop-color="#6B4DA4" stop-opacity="0"/>
</linearGradient>
<linearGradient id="paint12_linear_4791_915" x1="13.3852" y1="18.0202" x2="23.7561" y2="8.22539" gradientUnits="userSpaceOnUse">
<stop stop-color="#C6C1CB"/>
<stop offset="1" stop-color="#C6C1CB" stop-opacity="0"/>
</linearGradient>
<radialGradient id="paint13_radial_4791_915" cx="0" cy="0" r="1" gradientUnits="userSpaceOnUse" gradientTransform="translate(13.5388 18.5963) rotate(-38.418) scale(1.42172 1.60748)">
<stop stop-color="#CAC5D0"/>
<stop offset="1" stop-color="#CAC5D0" stop-opacity="0"/>
</radialGradient>
<linearGradient id="paint14_linear_4791_915" x1="23.6217" y1="2.86703" x2="29.3448" y2="8.78231" gradientUnits="userSpaceOnUse">
<stop stop-color="#7D7FB3"/>
<stop offset="1" stop-color="#776C9A"/>
</linearGradient>
</defs>
</svg>

<svg width="32" height="32" fill="none" xmlns="http://www.w3.org/2000/svg"><path fill-rule="evenodd" clip-rule="evenodd" d="M12.027 19.94a.7.7 0 0 1 0 .99l-7 7a.7.7 0 1 1-.99-.99l7-7a.7.7 0 0 1 .99 0Z" fill="url(#a)"/><path fill-rule="evenodd" clip-rule="evenodd" d="M12.027 19.94a.7.7 0 0 1 0 .99l-7 7a.7.7 0 1 1-.99-.99l7-7a.7.7 0 0 1 .99 0Z" fill="url(#b)"/><g filter="url(#c)"><path d="m22.544 13.89-4.5-4.5 1.558-1.606 4.5 4.5-1.558 1.606Z" fill="url(#d)"/></g><path d="m22.544 13.89-4.5-4.5 1.558-1.606 4.5 4.5-1.558 1.606Z" fill="url(#e)"/><g filter="url(#f)"><path d="m9.634 23.284-1.035-1c-.3-.3-.273-.908.024-1.17l1.992-2.086c.6-.5 2.04-2.101 2.084-3.544.197-2.276 2-3.9 2.1-4l7.2-7.2 1.2 1.2-7.3 7.3c-.1.1-1.5 1.4-1.5 2.8 0 .749-.312 1.537-.716 2.242-.102.178.197.478.376.376.715-.405 1.527-.718 2.34-.718 1.607-.151 2.747-1.518 2.747-1.518l7.336-7.43 1.219 1.234-7.289 7.305s-1.703 1.91-4.133 2.063c-1.5.18-2.469 1.28-3.445 2.132l-2 1.914c-.382.382-.889.412-1.2.1Z" fill="url(#g)"/></g><path d="m9.634 23.284-1.035-1c-.3-.3-.273-.908.024-1.17l1.992-2.086c.6-.5 2.04-2.101 2.084-3.544.197-2.276 2-3.9 2.1-4l7.2-7.2 1.2 1.2-7.3 7.3c-.1.1-1.5 1.4-1.5 2.8 0 .749-.312 1.537-.716 2.242-.102.178.197.478.376.376.715-.405 1.527-.718 2.34-.718 1.607-.151 2.747-1.518 2.747-1.518l7.336-7.43 1.219 1.234-7.289 7.305s-1.703 1.91-4.133 2.063c-1.5.18-2.469 1.28-3.445 2.132l-2 1.914c-.382.382-.889.412-1.2.1Z" fill="url(#h)"/><g filter="url(#i)"><path d="m27.184 9.903-5.2-5.2c-.6-.6-.703-1.395.07-2.169.774-.773 1.63-.731 2.23-.131l5.2 5.2c.6.6.79 1.455-.054 2.3-.89.834-1.646.6-2.246 0Z" fill="url(#j)"/></g><g filter="url(#k)"><path d="m5.448 26.491 3.377-3.347" stroke="url(#l)" stroke-width=".3"/></g><path d="m3.25 29.62-.945-.953c-.3-.3-.3-.974 0-1.274L3.86 25.84c.3-.3.976-.422 1.398 0l.836.836c.387.386.453.984 0 1.43l-1.39 1.398c-.3.3-.946.601-1.454.117Z" fill="url(#m)"/><path d="m3.25 29.62-.945-.953c-.3-.3-.3-.974 0-1.274L3.86 25.84c.3-.3.976-.422 1.398 0l.836.836c.387.386.453.984 0 1.43l-1.39 1.398c-.3.3-.946.601-1.454.117Z" fill="url(#n)"/><path d="m3.25 29.62-.945-.953c-.3-.3-.3-.974 0-1.274L3.86 25.84c.3-.3.976-.422 1.398 0l.836.836c.387.386.453.984 0 1.43l-1.39 1.398c-.3.3-.946.601-1.454.117Z" fill="url(#o)"/><path d="m3.25 29.62-.945-.953c-.3-.3-.3-.974 0-1.274L3.86 25.84c.3-.3.976-.422 1.398 0l.836.836c.387.386.453.984 0 1.43l-1.39 1.398c-.3.3-.946.601-1.454.117Z" fill="url(#p)"/><g filter="url(#q)" stroke-width=".2"><path d="m22.22 5.537-7.874 7.912c-.18.308-.538.73-.538 1.806 0 .7-.145 1.592-.606 2.333-.203.328-.21.768.062 1.041.246.246.638.275.947.117.575-.293 1.446-.61 2.286-.61 1.46 0 2.035-.385 3.188-1.537l6.894-6.895" stroke="url(#r)"/><path d="m22.22 5.537-7.874 7.912c-.18.308-.538.73-.538 1.806 0 .7-.145 1.592-.606 2.333-.203.328-.21.768.062 1.041.246.246.638.275.947.117.575-.293 1.446-.61 2.286-.61 1.46 0 2.035-.385 3.188-1.537l6.894-6.895" stroke="url(#s)"/></g><g filter="url(#t)"><path d="M28.987 8.158 23.595 2.8a.502.502 0 0 0-.708.712l5.392 5.359a.502.502 0 1 0 .708-.713Z" fill="url(#u)"/></g><defs><linearGradient id="a" x1="6.418" y1="24.323" x2="7.684" y2="25.589" gradientUnits="userSpaceOnUse"><stop offset=".384" stop-color="#ADA7B5"/><stop offset="1" stop-color="#AF97C7"/></linearGradient><linearGradient id="d" x1="19.8" y1="9.339" x2="22.988" y2="12.758" gradientUnits="userSpaceOnUse"><stop stop-color="#645E95"/><stop offset="1" stop-color="#5D5583"/></linearGradient><linearGradient id="g" x1="13.021" y1="19.863" x2="28.685" y2="4.284" gradientUnits="userSpaceOnUse"><stop offset=".501" stop-color="#BAB1C3"/><stop offset="1" stop-color="#968F9F"/></linearGradient><linearGradient id="j" x1="23.641" y1="1.953" x2="28.173" y2="11.26" gradientUnits="userSpaceOnUse"><stop stop-color="#6466A4"/><stop offset="1" stop-color="#554688"/></linearGradient><linearGradient id="l" x1="5.636" y1="26.491" x2="9.1" y2="22.97" gradientUnits="userSpaceOnUse"><stop offset=".558" stop-color="#B4AFBC"/><stop offset="1" stop-color="#A699B5" stop-opacity="0"/></linearGradient><linearGradient id="m" x1="3.153" y1="26.573" x2="5.322" y2="28.742" gradientUnits="userSpaceOnUse"><stop stop-color="#645D9B"/><stop offset="1" stop-color="#6952A3"/></linearGradient><linearGradient id="p" x1="2.836" y1="29.45" x2="3.529" y2="28.786" gradientUnits="userSpaceOnUse"><stop stop-color="#6B4DA4"/><stop offset="1" stop-color="#6B4DA4" stop-opacity="0"/></linearGradient><linearGradient id="r" x1="13.385" y1="18.02" x2="23.756" y2="8.225" gradientUnits="userSpaceOnUse"><stop stop-color="#C6C1CB"/><stop offset="1" stop-color="#C6C1CB" stop-opacity="0"/></linearGradient><linearGradient id="u" x1="23.622" y1="2.867" x2="29.345" y2="8.782" gradientUnits="userSpaceOnUse"><stop stop-color="#7D7FB3"/><stop offset="1" stop-color="#776C9A"/></linearGradient><radialGradient id="b" cx="0" cy="0" r="1" gradientUnits="userSpaceOnUse" gradientTransform="rotate(-44.556 34.942 6.323) scale(5.26558 1.893)"><stop offset=".798" stop-color="#967EAE" stop-opacity="0"/><stop offset=".971" stop-color="#967EAE"/></radialGradient><radialGradient id="e" cx="0" cy="0" r="1" gradientUnits="userSpaceOnUse" gradientTransform="matrix(4.82057 1.95896 -1.95723 4.8163 18.763 10.261)"><stop offset=".701" stop-color="#504A77" stop-opacity="0"/><stop offset=".88" stop-color="#504A77"/></radialGradient><radialGradient id="h" cx="0" cy="0" r="1" gradientUnits="userSpaceOnUse" gradientTransform="matrix(16.2433 -16.14117 7.67233 7.72088 9.207 22.724)"><stop offset=".915" stop-color="#807491" stop-opacity="0"/><stop offset="1" stop-color="#807491"/></radialGradient><radialGradient id="n" cx="0" cy="0" r="1" gradientUnits="userSpaceOnUse" gradientTransform="matrix(-2.62645 2.48214 -.72767 -.76998 5.29 26.65)"><stop offset=".276" stop-color="#6D62A2"/><stop offset="1" stop-color="#6D62A2" stop-opacity="0"/></radialGradient><radialGradient id="o" cx="0" cy="0" r="1" gradientUnits="userSpaceOnUse" gradientTransform="matrix(-.44736 .4185 -.82896 -.88612 5.319 26.535)"><stop stop-color="#7F78AD"/><stop offset="1" stop-color="#7F78AD" stop-opacity="0"/></radialGradient><radialGradient id="s" cx="0" cy="0" r="1" gradientUnits="userSpaceOnUse" gradientTransform="matrix(1.11392 -.88345 .99888 1.25946 13.539 18.596)"><stop stop-color="#CAC5D0"/><stop offset="1" stop-color="#CAC5D0" stop-opacity="0"/></radialGradient><filter id="c" x="18.044" y="7.284" width="6.058" height="7.106" filterUnits="userSpaceOnUse" color-interpolation-filters="sRGB"><feFlood flood-opacity="0" result="BackgroundImageFix"/><feBlend in="SourceGraphic" in2="BackgroundImageFix" result="shape"/><feColorMatrix in="SourceAlpha" values="0 0 0 0 0 0 0 0 0 0 0 0 0 0 0 0 0 0 127 0" result="hardAlpha"/><feOffset dy="-.6"/><feGaussianBlur stdDeviation=".25"/><feComposite in2="hardAlpha" operator="arithmetic" k2="-1" k3="1"/><feColorMatrix values="0 0 0 0 0.372549 0 0 0 0 0.309804 0 0 0 0 0.568627 0 0 0 1 0"/><feBlend in2="shape" result="effect1_innerShadow_4791_915"/><feColorMatrix in="SourceAlpha" values="0 0 0 0 0 0 0 0 0 0 0 0 0 0 0 0 0 0 127 0" result="hardAlpha"/><feOffset dy=".6"/><feGaussianBlur stdDeviation=".25"/><feComposite in2="hardAlpha" operator="arithmetic" k2="-1" k3="1"/><feColorMatrix values="0 0 0 0 0.427451 0 0 0 0 0.415686 0 0 0 0 0.603922 0 0 0 1 0"/><feBlend in2="effect1_innerShadow_4791_915" result="effect2_innerShadow_4791_915"/></filter><filter id="f" x="8.387" y="3.984" width="19.414" height="19.812" filterUnits="userSpaceOnUse" color-interpolation-filters="sRGB"><feFlood flood-opacity="0" result="BackgroundImageFix"/><feBlend in="SourceGraphic" in2="BackgroundImageFix" result="shape"/><feColorMatrix in="SourceAlpha" values="0 0 0 0 0 0 0 0 0 0 0 0 0 0 0 0 0 0 127 0" result="hardAlpha"/><feOffset dy="-.3"/><feGaussianBlur stdDeviation=".375"/><feComposite in2="hardAlpha" operator="arithmetic" k2="-1" k3="1"/><feColorMatrix values="0 0 0 0 0.643137 0 0 0 0 0.521569 0 0 0 0 0.752941 0 0 0 1 0"/><feBlend in2="shape" result="effect1_innerShadow_4791_915"/><feColorMatrix in="SourceAlpha" values="0 0 0 0 0 0 0 0 0 0 0 0 0 0 0 0 0 0 127 0" result="hardAlpha"/><feOffset dx=".1" dy=".3"/><feGaussianBlur stdDeviation=".15"/><feComposite in2="hardAlpha" operator="arithmetic" k2="-1" k3="1"/><feColorMatrix values="0 0 0 0 0.667329 0 0 0 0 0.624199 0 0 0 0 0.71585 0 0 0 1 0"/><feBlend in2="effect1_innerShadow_4791_915" result="effect2_innerShadow_4791_915"/></filter><filter id="i" x="21.505" y="1.653" width="8.495" height="8.791" filterUnits="userSpaceOnUse" color-interpolation-filters="sRGB"><feFlood flood-opacity="0" result="BackgroundImageFix"/><feBlend in="SourceGraphic" in2="BackgroundImageFix" result="shape"/><feColorMatrix in="SourceAlpha" values="0 0 0 0 0 0 0 0 0 0 0 0 0 0 0 0 0 0 127 0" result="hardAlpha"/><feOffset dy="-.3"/><feGaussianBlur stdDeviation=".3"/><feComposite in2="hardAlpha" operator="arithmetic" k2="-1" k3="1"/><feColorMatrix values="0 0 0 0 0.364706 0 0 0 0 0.309804 0 0 0 0 0.537255 0 0 0 1 0"/><feBlend in2="shape" result="effect1_innerShadow_4791_915"/></filter><filter id="k" x="5.043" y="22.737" width="4.188" height="4.161" filterUnits="userSpaceOnUse" color-interpolation-filters="sRGB"><feFlood flood-opacity="0" result="BackgroundImageFix"/><feBlend in="SourceGraphic" in2="BackgroundImageFix" result="shape"/><feGaussianBlur stdDeviation=".15" result="effect1_foregroundBlur_4791_915"/></filter><filter id="q" x="12.554" y="5.066" width="14.496" height="14.278" filterUnits="userSpaceOnUse" color-interpolation-filters="sRGB"><feFlood flood-opacity="0" result="BackgroundImageFix"/><feBlend in="SourceGraphic" in2="BackgroundImageFix" result="shape"/><feGaussianBlur stdDeviation=".2" result="effect1_foregroundBlur_4791_915"/></filter><filter id="t" x="21.488" y="1.404" width="8.897" height="8.863" filterUnits="userSpaceOnUse" color-interpolation-filters="sRGB"><feFlood flood-opacity="0" result="BackgroundImageFix"/><feBlend in="SourceGraphic" in2="BackgroundImageFix" result="shape"/><feGaussianBlur stdDeviation=".625" result="effect1_foregroundBlur_4791_915"/></filter></defs></svg>
